X: 2035
T: Zaman İçinde
C: Semahat Özdenses
O: Turkey
F: http://compmusic.upf.edu/node/140
N: beyati--sarki--duyek--zaman_icinde--semahat_ozdenses
N: makam= beyati
N: form= sarki
N: usul= duyek = 8/4
M: 8/4
L: 1/16
K: C _2/4B   
Q: 1/4=120
%%MIDI tuningsystem comma53
c2 d4 d2 d4 e2 ed  | d4 d4 z4 z4  | e4 g2 e2 e2 ed d4  | \
w:   |   |   | 
d2 c_1/4B c2 d2 d4 z4  | 
w:   | 
z2 f4 e2 f2 e2 g2 e2  | z2 e4 d2 e2 d2 f2 d2  | \
w:   |   | 
z2 d6 c2 _1/4B2 c2 d12 z4 c2  | 
w:   | 
d4 d2 d4 e2 ed d4 d4 z4 z4 e4 g2 e2 e2 ed d4 d2  | \
w:   | 
c_1/4B c2 d2 d4 z4 z2  | 
w:   | 
f4 e2 f2 e2 g2 e2 z2  | e4 d2 e2 d2 f2 d2 z2  | \
w:   |   | 
d6 c2 _1/4B2 c2 d12 z4 z2 f4 a2 g2 f2 e2 d2 z2 e2  | 
w:   | 
d2 e2 d2 c3/2_1/4B/ c2 e2 f4  | fe f3/2e/ f2 z4 d2 e4  | \
w:   |   | 
ed e3/2d/ e2 z4 c2 d4  | 
w:   | 
f2 e2 d2 c2 _1/4B2 dc B4  | _1/4BA A4 f4 z2 f4  | \
w:   |   | 
a2 g2 f2 e2 d2 z2 e2 d2  | 
w:   | 
e2 d2 c3/2_1/4B/ c2 e2 f4 fe  | f3/2e/ f2 z4 d2 e4 ed  | \
w:   |   | 
e3/2d/ e2 z4 c2 d4 f2  | 
w:   | 
e2 d2 c2 _1/4B2 dc B4 BA  | A4 A4 z2 f4 e2  | \
w:   |   | 
f2 e2 g2 e2 z2 e4 d2  | 
w:   | 
e2 d2 f2 d2 d2 a4 g2  | ^f2 g2 a4 =f2 f4 a2  | \
w:   |   | 
a4 a4 a2 c'2 _1/4b2 a2  | a2 g^f g4 z4 g2 g2  | 
w:   |   | 
a2 a4 g2 a2 g2 a2 _1/4ba  | a4 z4 z4 e2 fe  | \
w:   |   | 
g2 g2 e2 d2 d2 c_1/4B c2 d2  | 
w:   | 
d4 z4 z2 f4 e2  | f2 e2 g2 e2 z2 e4 d2  | \
w:   |   | 
e2 d2 f2 d2 z2 d6  | c4 _1/4B2 c2 d4 d4  | 
w:   |   | 
d4 z4 z2 f4 a2  | g2 f2 e2 d2 z2 e2 d2 e2  | \
w:   |   | 
d2 c3/2_1/4B/ c2 e2 f4 fe f3/2e/  | 
w:   | 
f2 z4 d2 e4 ed e3/2d/  | e2 z4 c2 d4 f2 e2  | \
w:   |   | 
d2 c2 _1/4B2 dc B4 BA A4 f4 z2 f4 a2 g2  | 
w:   | 
f2 e2 d2 z2 e2 d2 e2 d2  | c3/2_1/4B/ c2 e2 f4 fe f3/2e/ f2  | \
w:   |   | 
z4 d2 e4 ed e3/2d/ e2  | 
w:   | 
z4 c2 d4 f2 e2 d2  | c2 _1/4B2 dc B4 BA A4  | \
w:   |   | 
A4 |
w:   | 


